X: 28965
T: Nancy's Letterbox
R: slip jig
M: 9/8
K: Emajor
|:e2e e2f gfe|c2f f2e gfe|B2e e2f gfe|1 B2b g2f ggf:|2 B2b g2f efg||
a2c cfe def|g2B BcA GAB|c2F FGA Bcd|ee/e/e gfe gfe|
a2c cfe def|g2B BcA GAB|cc/c/c fga fga|b3 b2c' g2f||

